X: 1
T: Yankee Doodle Boy
%T:A Hal Leonard Arrangement
M: C|
L: 1/8
P: Flute
%Q:1/2=120
C: George M. Cohan
%C:Arr. by Zane Van Auken
K:Ab
"Intro"\
"^>"!f!a2"^>"a2 b2c'2 | a2c'2 b2e2 | a2a2 b2c'2 | a4e4 |\
=d'2d'4d'2 | =d'2d'2d'2d'2 | e'2z2e'2z2 | z8 |
% - - - - - - - - - -
"A"|:\
c'6b2 | b2a2g2a2 | b8 | f6b2 |\
b6c'2 | b2g2f2e2 | (a8 | a6)c'2 |\
c'4c'4 | =a2b2c'2e'2 | d'4c'4 | b8 |
c'2b4a2 | f2a4c'2 | (Te'8 | Te'2)(efga b=b) |\
"B"c'6b2 | b2a2g2a2 | b8 | f8 |\
b6c'2 | b2g2f2e2 | (a8 | a6)e2 |
a2a2b2c'2 | a2c'2b2e2 | a2a2b2c'2 | a4e4 |\
f2b4f2 | g3ab2g2 |1 (a8 | a2)z2z4 :|2 (a8 | a2)z2c'3=a |]
f2f2(fg=ab) | c'2c'2c'2=a2 | c'4=d'4 | e'2z2z4 ||[K:Bb]\
y8 y8 y8 y8 y8 y8 y8 y8
% - - - - - - - - - -
"C"|:\
z4((d'4 | d'4)f'4 | (=e'8 | =e'8)) |\
z4((_e'4 | e'4)^c'4 | (d'8 | d'2))(fg abc'^c') |\
d'4d'4 | =b2c'2d'2f'2 | z2e'4d'2 | c'2c'd'e'2c'2 |
d'2c'4b2 | g2b4d'2 | (c'8 | c'2)z2z4 |\
z4((d'4 | d'4)f'4 | (=e'8 | e'8)) |\
z4((_e'4 | e'4)^c'4 | (d'8 | d'2))f2g2a2 |
b2b2c'2d'2 | b2d'2c'2f2 | b2b2c'2d'2 | b4f4 |\
g2c'4g2 | Tf8 |1 (b8 | b2)z2z4 :|2 b2z2c'4 | _d'4e'4 | (f'8 | f'2)z2z4 |]
W:Yankee Doodle went to town
